Sources/FrostedUI/Resources/Icons.xcassets/twitch16.imageset/twitch-16.svg

<svg width="16" height="16" viewBox="0 0 16 16" fill="none" xmlns="http://www.w3.org/2000/svg" data-fui-icon="true">
  <path
    d="M1.95473 1L1 3.43484V13.173H4.49907V15H6.40936L8.31784 13.173H11.1813L15 9.52235V1H1.95473ZM3.22671 2.21663H13.7274V8.91244L11.4995 11.0432H8L6.09212 12.8677V11.0432H3.22671V2.21663ZM6.72715 8.30451H8V4.65278H6.72715V8.30451ZM10.227 8.30451H11.4996V4.65278H10.227V8.30451Z"
    fill="currentColor"
  />
</svg>

<svg xmlns="http://www.w3.org/2000/svg" width="16" height="16" fill="none" data-fui-icon="true" viewBox="0 0 16 16"><path fill="currentColor" d="M1.955 1 1 3.435v9.738h3.5V15h1.91l1.908-1.827h2.863L15 9.523V1zm1.272 1.217h10.5v6.695L11.5 11.043H8l-1.908 1.825v-1.825H3.227zm3.5 6.088H8V4.653H6.727zm3.5 0H11.5V4.653h-1.273z"/></svg>
